src/assets/dark/IconAppealActive.svg

<svg width="44" height="44" viewBox="0 0 44 44" fill="none" xmlns="http://www.w3.org/2000/svg">
<path fill-rule="evenodd" clip-rule="evenodd" d="M22.4956 43.7246C34.3697 43.7246 43.9956 34.0987 43.9956 22.2246C43.9956 10.3505 34.3697 0.724609 22.4956 0.724609C10.6215 0.724609 0.995605 10.3505 0.995605 22.2246C0.995605 34.0987 10.6215 43.7246 22.4956 43.7246Z" fill="url(#paint0_linear)"/>
<path d="M16.7234 19.4276C16.1668 18.8692 15.4106 18.5558 14.6222 18.5566C12.9807 18.5562 11.6496 19.8865 11.6492 21.528C11.6487 23.1695 12.979 24.5006 14.6205 24.501C16.262 24.5014 17.5931 23.1711 17.5935 21.5296C17.5937 20.7413 17.2807 19.9851 16.7234 19.4276Z" fill="#B0A8D8" fill-opacity="0.8"/>
<path fill-rule="evenodd" clip-rule="evenodd" d="M14.7418 25.4277H14.426C11.105 25.436 8.41494 28.1579 8.40674 31.5179V31.948C8.40674 32.1842 8.59594 32.3757 8.82941 32.3757H20.336C20.5694 32.3757 20.7586 32.1842 20.7586 31.948V31.5179C20.7491 28.1594 18.0612 25.4388 14.7418 25.4277Z" fill="#B0A8D8" fill-opacity="0.8"/>
<path d="M21.376 10.7748C23.3759 9.37232 25.7671 8.63827 28.2083 8.67726C30.6496 8.63827 33.0408 9.37232 35.0407 10.7748C36.8523 12.1126 37.974 13.9702 37.974 16.0423C37.974 18.1143 36.8559 19.9756 35.0407 21.3134C33.0408 22.7158 30.6496 23.4499 28.2083 23.4109C27.3401 23.4113 26.4741 23.3236 25.6235 23.1491C24.9058 23.0032 24.2032 22.7902 23.5252 22.513L19.9601 24.7159C19.7806 24.8292 19.5553 24.8414 19.3646 24.7484C19.0599 24.5999 18.9332 24.2322 19.0816 23.9271L20.6317 20.7026C20.0149 20.1402 19.5002 19.4747 19.1106 18.736C18.6747 17.9063 18.4455 16.9834 18.4426 16.0459C18.4426 13.9738 19.5608 12.1126 21.376 10.7748ZM28.3432 19.51C27.8935 19.51 27.5291 19.8776 27.5291 20.3312C27.5291 20.7848 27.8935 21.1523 28.3432 21.1523C28.7929 21.1523 29.1573 20.7848 29.1573 20.3312C29.1573 19.8776 28.7929 19.51 28.3432 19.51ZM28.3432 10.9146C27.9923 10.9146 27.6573 11.0629 27.4201 11.3231C27.1825 11.5837 27.064 11.9327 27.0934 12.2856L27.5985 17.5335L27.6006 17.5547C27.643 17.9349 27.9617 18.2244 28.3432 18.2244C28.7317 18.2244 29.0552 17.9241 29.0879 17.5335L29.593 12.2856L29.5953 12.2535C29.6152 11.9116 29.4966 11.5758 29.2663 11.3231C29.0291 11.0629 28.6941 10.9146 28.3432 10.9146Z" fill="white" fill-opacity="0.87"/>
<defs>
<linearGradient id="paint0_linear" x1="0.995606" y1="9.40069" x2="45.8419" y2="41.1306" gradientUnits="userSpaceOnUse">
<stop stop-color="#6C5BC2"/>
<stop offset="1" stop-color="#5A42AC"/>
</linearGradient>
</defs>
</svg>

<svg width="44" height="44" fill="none" xmlns="http://www.w3.org/2000/svg"><path fill-rule="evenodd" clip-rule="evenodd" d="M22.496 43.725c11.874 0 21.5-9.626 21.5-21.5 0-11.875-9.626-21.5-21.5-21.5s-21.5 9.626-21.5 21.5 9.625 21.5 21.5 21.5z" fill="url(#paint0_linear)"/><path d="M16.723 19.428a2.972 2.972 0 10-4.204 4.202 2.972 2.972 0 004.204-4.202z" fill="#B0A8D8" fill-opacity=".8"/><path fill-rule="evenodd" clip-rule="evenodd" d="M14.742 25.428h-.316c-3.321.008-6.011 2.73-6.02 6.09v.43c0 .236.19.428.423.428h11.507a.425.425 0 00.423-.428v-.43c-.01-3.359-2.698-6.08-6.017-6.09z" fill="#B0A8D8" fill-opacity=".8"/><path d="M21.376 10.775c2-1.403 4.391-2.137 6.832-2.098a11.577 11.577 0 016.833 2.098c1.811 1.338 2.933 3.195 2.933 5.267 0 2.072-1.118 3.934-2.933 5.271a11.578 11.578 0 01-6.833 2.098c-.868 0-1.734-.087-2.584-.262a11.708 11.708 0 01-2.099-.636l-3.565 2.203a.613.613 0 01-.878-.789l1.55-3.224a7.219 7.219 0 01-1.521-1.967 5.823 5.823 0 01-.668-2.69c0-2.072 1.118-3.933 2.933-5.271zm6.967 8.735a.818.818 0 00-.814.821c0 .454.364.821.814.821.45 0 .814-.367.814-.82a.818.818 0 00-.814-.822zm0-8.595c-.35 0-.686.148-.923.408-.238.26-.356.61-.327.963l.506 5.248.002.02a.75.75 0 00.742.67.75.75 0 00.745-.69l.505-5.248.002-.032a1.272 1.272 0 00-.329-.93 1.25 1.25 0 00-.923-.41z" fill="#fff" fill-opacity=".87"/><defs><linearGradient id="paint0_linear" x1=".996" y1="9.401" x2="45.842" y2="41.131" gradientUnits="userSpaceOnUse"><stop stop-color="#6C5BC2"/><stop offset="1" stop-color="#5A42AC"/></linearGradient></defs></svg>
